X:1
T:Zatichejnoci
T:Za tichej nočnej chvíle
%%score { 1 | 2 }
L:1/8
M:4/4
K:G
V:1 treble nm="Piano" snm="Pno."
V:2 bass 
V:1
!p! [B,D]2 [B,D]3 [B,D][B,D][B,D] |[M:3/4] [CD]2 [CD]2 z [CD] | [CD]3 [CD] [C=F][CF] | %3
w: Za ti- chej noč- nej|chví- le, keď|vša- de vlá- dol|
 [B,D]4!mf! [B,D]2 | [CG]3 [CG] [^CA][CA] | [DB]2 [B,G]2 z [DG] | [^CG]3 [CE] [C=F][CG] | %7
w: kľud a|v spán- ku zav- rel|o- či ten|bet- le- hem- ský|
 [=CA]4!f! D2 | [DB]3 [DB] [Ec][DB] | [^CB]2 [CE]2 z [CA] | [=CA]3 [CA] [DB][CA] | %11
w: ľud, tam|za mes- tom chliev|ma- lý je|pl- ný ja- su,|
 [B,A]2 [B,G]2 [=FG]2 | [Ec]3 [Ec] [=Fd][Fc] | [Ec]2 [DB][DB]!mf! [DG][CE] | [B,D]2 [A,D][B,D] D2 | %15
w: krás,- * tam|ľu- ďom a- ko|v ra- ji sa pri- blí|žil * * Boh|
 [B,D]6 |[M:4/4]!p! [B,D]2 [B,D]3 [B,D][B,D][B,D] |[M:3/4] [CD]2 [CD]2 z [CD] | %18
w: zas.|Vi- taj nám die- ťa|krá- sne, Ty|
 [CD]3 [CD] [C=F][CF] | [B,D]4!mf! [B,D]2 | [CG]3 [CG] [^CA][CA] | [DB]2 [B,G]2 z [DG] | %22
w: ne- sieš spa- se|nie, splň|po- sol- stvo pre-|vzá- cne čo|
 [^CG]3 [CE] [C=F][CG] | [=CA]4!f! D2 | [DB]3 [DB] [Ec][DB] | [^CB]2 [CE]2 z [CA] | %26
w: prá- ve z ne- ba|znie. A|bý- vaj v kaž- dom|srd- ci, kde|
 [=CA]3 [CA] [DB][CA] | [B,A]2 [B,G]2 [=FG]2 | [Ec]3 [Ec] [=Fd][Fc] | [Ec]2 [DB][DB]!mf! [DG][CE] | %30
w: do- siaľ tma a|chlad,   ó,|u- rob svet- lo|z no- ci, púšťpre- * meň|
 [B,D]2 [DB]2 [CA]2 | [B,D]6 |[M:4/4]!p! [B,D]2 [B,D]3 [B,D][B,D][B,D] | %33
w: v raj-   ský|sad.|My ví- ta- me Ťa.|
[M:3/4] [CD]2 [CD]2 z [CD] | [CD]3 [CD] [C=F][CF] | [B,D]4!mf! [B,D]2 | [CG]3 [CG] [^CA][CA] | %37
w: Kráľ náš, ráč|sám v nás pre- bý-|vať, keď|v sd- ciach trón si|
 [DB]2 [B,G]2 z [DG] | [^CG]3 [CE] [C=F][CG] | [=CA]4!f! D2 | [DB]3 [DB] [Ec][DB] | %41
w: sta- viaš, Tvoj|ľud sa smie- me|zvať, Tvoj|prí- chod zo- buď|
 [^CB]2 [CE]2 z [CA] | [=CA]3 [CA] [DB][CA] | [B,A]2 [B,G]2 [=FG]2 | [Ec]3 [Ec] [=Fd][Fc] | %45
w: spia- cich, kým|eš- te spá- sy|čas,   Tvoj|prí- chod zo- buď|
 [Ec]2 [DB][DB]!mf! [DG][CE] | [B,D]2 [DB]2 [CA]2 | [GB]4 [DG]2 | [^CG]3 [CG] [CG][CG] | %49
w: spia- cich, kým eš- te|spá- * sy|čas nech|znie spev ja- sa|
 [DG]2 [B,D]2 z [CB] | [=Fd]3 [FA] [FA][FB] | [DG]6 |] %52
w: jú- cich. Boh|pri- blí- žil sa|zas!|
V:2
 G,2 G,3 G,G,G, |[M:3/4] [=F,A,]2 A,2 z [F,A,] | [=F,A,]3 [F,A,] [D,A,][F,A,] | G,4 [=F,G,]2 | %4
 [E,G,]3 [E,G,] [_E,G,][E,G,] | [D,G,]2 [D,G,]2 z [B,,G,] | [A,,E,]3 [A,,A,] [A,,A,][A,,A,] | %7
 [D,=F,]4 D,2 | G,3 [=F,G,] [E,^G,][E,G,] | [A,,G,]2 [A,,G,]2 z [A,,G,] | %10
 [D,=F,]3 [D,F,] [D,F,][D,F,] | [G,,G,]4 [G,B,]2 | [C,G,]3 [C,G,] [C,G,][C,G,] | %13
 [G,,G,]2 [G,,G,][G,,G,] [B,,G,][B,,G,] | [D,G,]2 [D,=F,][D,G,] [D,A,]2 | [G,,G,]6 | %16
[M:4/4] G,2 G,3 G,G,G, |[M:3/4] [=F,A,]2 A,2 z [F,A,] | [=F,A,]3 [F,A,] [D,A,][F,A,] | %19
 G,4 [=F,G,]2 | [E,G,]3 [E,G,] [_E,G,][E,G,] | [D,G,]2 [D,G,]2 z [B,,G,] | %22
 [A,,E,]3 [A,,A,] [A,,A,][A,,A,] | [D,=F,]4 D,2 | G,3 [=F,G,] [E,^G,][E,G,] | %25
 [A,,G,]2 [A,,G,]2 z [A,,G,] | [D,=F,]3 [D,F,] [D,F,][D,F,] | [G,,G,]4 [G,B,]2 | %28
 [C,G,]3 [C,G,] [C,G,][C,G,] | [G,,G,]2 [G,,G,][G,,G,] [B,,G,][B,,G,] | %30
 [D,G,]2 [D,=F,][D,G,] [D,A,]2 | [G,,G,]6 |[M:4/4] G,2 G,3 G,G,G, |[M:3/4] [=F,A,]2 A,2 z [F,A,] | %34
 [=F,A,]3 [F,A,] [D,A,][F,A,] | G,4 [=F,G,]2 | [E,G,]3 [E,G,] [_E,G,][E,G,] | %37
 [D,G,]2 [D,G,]2 z [B,,G,] | [A,,E,]3 [A,,A,] [A,,A,][A,,A,] | [D,=F,]4 D,2 | %40
 G,3 [=F,G,] [E,^G,][E,G,] | [A,,G,]2 [A,,G,]2 z [A,,G,] | [D,=F,]3 [D,F,] [D,F,][D,F,] | %43
 [G,,G,]4 [G,B,]2 | [C,G,]3 [C,G,] [C,G,][C,G,] | [G,,G,]2 [G,,G,][G,,G,] [B,,G,][B,,G,] | %46
 [D,G,]2 [D,^F,][D,G,] [D,A,]2 | [G,D]4 [G,B,][=F,B,] | [E,A,]3 [=E,A,] [E,A,][E,A,] | %49
 [D,B,]2 [D,G,]2 z [G,,G,] | [D,A,]3 [D,D] [D,C][D,D] | [G,B,]6 |] %52

